!!!OTL: Nigu sifan
!!!ARE: Asia, China,ˇHunan
!! Zhongguo minge xuan, 246
!!!SCT: C1717
!!!YEM: Copyright 1995, estate of Helmut Schaffrath.
**kern
*ICvox
*Ivox
*M2/4
*k[f#c#g#d#]
*E:
{8g#
8c#
8e
8c#
=1
8b
16g#
16b
8cc#
8ee
=2
8b
16b
16b
8cc#
16b
16g#
=3
16g#
16b
8e
4f#}
=4
{4g#
8cc#
8ee
=5
8g#
8b
16g#
16b
8g#
=6
8e
16c#
16e
8g#
8e
=7
16c#
16e
4.c#}
=8
{8g#
8c#
8e
8c#
=9
8b
8ee
8.cc#
16ee
=10
4b
8cc#
16b
16g#
=11
16g#
16b
8e
4f#}
=12
{8g#
8g#
8cc#
8ee
=13
8g#
8b
16g#
16b
8g#
=14
8e
16c#
16e
8g#
8e
=15
8.c#
16e
8g#
8e
=16
2c#}
==
!!!AGN: Xiaodiao. NannÅ qing
!!!ONB: ESAC (Essen Associative Code) Database: ZHEN
!!!AMT: simple duple
!!!AIN: vox
!!!EED: Helmut Schaffrath
!!!EEV: 1.0
*-
